brandFactory_export/3.Masa/Mano arriba_3Masa.svg

<?xml version="1.0" encoding="UTF-8"?>
<svg width="24px" height="24px" viewBox="0 0 24 24" version="1.1" xmlns="http://www.w3.org/2000/svg" xmlns:xlink="http://www.w3.org/1999/xlink">
    <title>3.Masa/Mano arriba_3Masa</title>
    <g id="Symbols" stroke="none" stroke-width="1" fill="none" fill-rule="evenodd">
        <g id="3.Masa/Mano-arriba_3Masa" fill="#5CB615" fill-rule="nonzero">
            <path d="M19.2605042,8.9512605 C18.9210084,8.9512605 18.6117647,8.99831933 18.3327731,9.09243697 C18.0470588,8.06386555 17.2033613,7.45210084 15.9932773,7.45210084 C15.6537815,7.45210084 15.3411765,7.50252101 15.0621849,7.59327731 C14.7731092,6.57478992 13.9327731,5.9697479 12.7294118,5.9697479 C12.4336134,5.9697479 12.1579832,6.00672269 11.9092437,6.07731092 L11.9092437,2.59495798 C11.9092437,0.994957983 10.9277311,0 9.34789916,0 C7.82857143,0 6.89747899,0.924369748 6.79327731,2.54117647 L6.79327731,11.4554622 C6.38655462,10.7630252 6.02016807,10.2789916 5.58319328,9.92941176 C5.15294118,9.58319328 4.63865546,9.41176471 4.13445378,9.41176471 C3.65042017,9.41176471 3.17310924,9.5697479 2.77647059,9.88907563 C1.99663866,10.5142857 1.80504202,11.5798319 2.28571429,12.605042 C3.10252101,14.3428571 4.47731092,17.1361345 5.58319328,19.3815126 C6.27226891,20.7798319 6.86722689,21.989916 7.03529412,22.3529412 C7.21008403,22.7361345 7.62352941,23.6268908 8.56134454,23.6268908 L17.9058824,23.6268908 C19.0857143,23.6268908 20.0907563,23.2571429 20.7394958,22.5882353 C21.3848739,21.9226891 21.7109244,20.9915966 21.7109244,19.8252101 L21.7109244,11.4285714 C21.7042017,9.89915966 20.7697479,8.9512605 19.2605042,8.9512605 L19.2605042,8.9512605 Z" id="Path"></path>
        </g>
    </g>
</svg>

<svg width="24" height="24" viewBox="0 0 24 24" xmlns="http://www.w3.org/2000/svg"><path d="M19.26 8.951c-.339 0-.648.047-.927.141-.286-1.028-1.13-1.64-2.34-1.64-.34 0-.652.05-.93.141-.29-1.018-1.13-1.623-2.334-1.623-.295 0-.571.037-.82.107V2.595C11.91.995 10.928 0 9.348 0c-1.52 0-2.45.924-2.555 2.541v8.914c-.406-.692-.773-1.176-1.21-1.526a2.313 2.313 0 00-1.449-.517c-.484 0-.96.158-1.358.477-.78.625-.971 1.69-.49 2.716.817 1.738 2.191 4.531 3.297 6.777.69 1.398 1.284 2.608 1.452 2.97.175.384.589 1.275 1.526 1.275h9.345c1.18 0 2.185-.37 2.833-1.039.646-.665.972-1.596.972-2.763V11.43c-.007-1.53-.941-2.478-2.45-2.478z" fill="#5CB615" fill-rule="nonzero"/></svg>
